X:1
T:Title
%%score 1 2
L:1/8
Q:1/4=100
M:4/4
K:E
V:1 bass nm="Strings 1, Soprano"
V:2 bass nm="Strings 1, Bass"
V:1
 z4 z2 B,>B, | [B,E]>[B,D] [B,E]>[K:treble][B,F] [EG]2 [GB]>[GB] | %2
w: 1.~From~ my~|soul~ and~ all~ with in,~ Let~ e|
 [Ac]>[GB] [GB]>[FA] [EG]2 [EB]>[EB] | [Ge]>[GB] [GB]>[EG] [EB]2 [EG]2 | [DF]6[K:bass] B,>B, | %5
w: ter nal~ mu sic~ spring;~ Mel o|dies~ of~ love~ and~ gra ti|tude,~ To~ our~|
 [B,E]>[B,D] [B,E]>[K:treble][B,F] [EG]2 [GB]>[GB] | [Ac]>[GB] [GB]>[FA] [EG]2 [EB]>[EB] | %7
w: Fa ther's~ name~ a bove,~ And~ the~|Son~ of~ heav en's~ love,~ Who~ hath~|
 [Ee]2 [EG]2 [GB]>E [EG]>[DF] | E6 [GB]>[GB] | [Ge]4- [Ge]>[EG] [EA]>[Ac] | %10
w: made~ in~ us~ His~ sweet~ a|bode.~ * *||
 [GB]4 [EG]2 [B,E]>[B,F] | [EG]2 [EG]2 [EB]2 [EG]2 | [DF]6 [GB]>[GB] | [Ge]4- [Ge]>[EG] [EA]>[Ac] | %14
w: ||||
 [GB]4 [EG]2 B,>B, | [B,E]2 E2 [EG]2 [DF]2 | [B,E]6 z2 |] %17
w: |||
V:2
 z4 z2 [E,G,]>[E,G,] | [E,G,]>[E,F,] [E,G,]>[E,A,] [E,B,]2 [E,E]>[E,E] | %2
 [E,E]>[E,E] [E,E]>[E,B,] [E,B,]2 [E,G,]>[E,G,] | [E,B,]>[E,E] [E,E]>[E,B,] [E,G,]2 [E,B,]2 | %4
 [B,,B,]6 [E,G,]>[E,G,] | [E,G,]>[E,F,] [E,G,]>[E,A,] [E,B,]2 [E,E]>[E,E] | %6
 [E,E]>[E,E] [E,E]>[E,B,] [E,B,]2 [E,G,]>[E,G,] | [E,G,]2 [E,B,]2 [E,B,]>[G,,B,] [B,,B,]>[B,,A,] | %8
 [E,G,]6 [E,B,]>[E,B,] | [E,B,]>[E,B,] [E,B,]>[E,B,] [E,B,]2 [A,,C]>[A,,E] | %10
 [E,E]>[E,E] [E,E]>[E,E] [E,B,]2 [E,G,]>[E,G,] | [E,B,]2 [E,B,]2 [G,B,]2 [E,B,]2 | %12
 [B,,B,]2 [B,,B,]2 [B,,B,]2 [E,B,]>[E,B,] | [E,B,]>[E,B,] [E,B,]>[E,B,] [E,B,]2 [A,,C]>[A,,E] | %14
 [E,E]>[E,E] [E,E]>[E,E] [E,B,]2 [E,G,]>[E,G,] | [E,G,]2 [C,^A,]2 [B,,B,]2 [B,,=A,]2 | %16
 [E,G,]6 z2 |] %17

